X: 1034
T:The Glass of Beer (A14)
N: page A14
N: hexatonic
R:reel
D:Oisin: Over the Moor to Maggie.
D:Frankie Gavin: Up and Away
Z:id:hn-reel-77
M:C|
K:Bm
|: "Bm"fB~B2 fBaB | fB~B2 "A"~e2de | "Bm"fB~B2 f2 fe |1 "D"dfaf "A"e2de :|2 "D"dfaf "A7"e2dc ||
|:  "D"dcde  f{g}f{e}fe  | d2fd "A"eAA2 |  "D"dcde f{g}f{e}fe |1 "D"dfaf "A"e2fe :|2 "D"dfaf "A"e2de |]
